tools/download-figma-icons/icons/outlined-large/waves.svg

<svg width="64" height="64" viewBox="0 0 64 64" fill="none" xmlns="http://www.w3.org/2000/svg">
<path fill-rule="evenodd" clip-rule="evenodd" d="M49.663 23C46.777 23 45.304 21.333 44.12 19.993C42.995 18.72 42.287 18 40.825 18C39.364 18 38.657 18.72 37.533 19.993C36.35 21.333 34.878 23 31.994 23C29.1099 23 27.6379 21.3341 26.4541 19.9943L26.453 19.993C25.328 18.72 24.621 18 23.16 18C21.699 18 20.992 18.72 19.868 19.993C18.685 21.333 17.213 23 14.329 23C11.445 23 9.973 21.333 8.79 19.993C7.666 18.72 6.959 18 5.5 18C4.672 18 4 17.329 4 16.5C4 15.671 4.672 15 5.5 15C8.38331 15 9.8543 16.6662 11.0372 18.006L11.038 18.007C12.162 19.28 12.869 20 14.329 20C15.789 20 16.496 19.28 17.62 18.007C18.803 16.667 20.275 15 23.16 15C26.0441 15 27.5161 16.6659 28.6999 18.0057L28.701 18.007C29.826 19.28 30.533 20 31.994 20C33.454 20 34.161 19.28 35.285 18.007C36.468 16.667 37.94 15 40.825 15C43.711 15 45.184 16.667 46.368 18.007C47.493 19.28 48.201 20 49.663 20C51.125 20 51.832 19.28 52.957 18.007C54.141 16.667 55.614 15 58.5 15C59.328 15 60 15.671 60 16.5C60 17.329 59.328 18 58.5 18C57.038 18 56.33 18.72 55.205 19.994L55.2037 19.9954C54.02 21.3342 52.547 23 49.663 23ZM49.663 36C46.777 36 45.304 34.333 44.12 32.993C42.995 31.72 42.287 31 40.825 31C39.364 31 38.657 31.72 37.533 32.993C36.35 34.333 34.878 36 31.994 36C29.1099 36 27.6379 34.3341 26.4541 32.9943L26.453 32.993C25.328 31.72 24.621 31 23.16 31C21.699 31 20.992 31.72 19.868 32.993C18.685 34.333 17.213 36 14.329 36C11.4467 36 9.9747 34.3339 8.79205 32.9953L8.79 32.993C7.666 31.72 6.959 31 5.5 31C4.672 31 4 30.329 4 29.5C4 28.671 4.672 28 5.5 28C8.38331 28 9.8543 29.6662 11.0372 31.006L11.038 31.007C12.162 32.28 12.869 33 14.329 33C15.789 33 16.496 32.28 17.62 31.007C18.803 29.667 20.275 28 23.16 28C26.0441 28 27.5161 29.6659 28.6999 31.0057L28.701 31.007C29.826 32.28 30.533 33 31.994 33C33.454 33 34.161 32.28 35.285 31.007C36.468 29.667 37.94 28 40.825 28C43.711 28 45.184 29.667 46.368 31.007C47.493 32.28 48.201 33 49.663 33C51.125 33 51.832 32.28 52.957 31.007C54.141 29.667 55.614 28 58.5 28C59.328 28 60 28.671 60 29.5C60 30.329 59.328 31 58.5 31C57.038 31 56.33 31.72 55.205 32.994L55.2037 32.9954C54.02 34.3342 52.547 36 49.663 36ZM44.12 45.993C45.304 47.333 46.777 49 49.663 49C52.548 49 54.021 47.333 55.205 45.993C56.33 44.721 57.038 44 58.5 44C59.328 44 60 43.328 60 42.5C60 41.672 59.328 41 58.5 41C55.614 41 54.141 42.667 52.957 44.007C51.832 45.28 51.125 46 49.663 46C48.201 46 47.493 45.279 46.368 44.007C45.184 42.667 43.711 41 40.825 41C37.94 41 36.468 42.667 35.285 44.007C34.161 45.28 33.454 46 31.994 46C30.533 46 29.826 45.28 28.701 44.007L28.6999 44.0057C27.5161 42.6659 26.0441 41 23.16 41C20.275 41 18.803 42.667 17.62 44.007C16.496 45.28 15.789 46 14.329 46C12.869 46 12.162 45.28 11.038 44.007L11.0372 44.006C9.8543 42.6662 8.38331 41 5.5 41C4.672 41 4 41.672 4 42.5C4 43.328 4.672 44 5.5 44C6.959 44 7.666 44.72 8.79 45.992L8.7907 45.9928C9.97358 47.3327 11.4456 49 14.329 49C17.213 49 18.685 47.333 19.868 45.993C20.992 44.72 21.699 44 23.16 44C24.621 44 25.328 44.72 26.453 45.993L26.4541 45.9943C27.6379 47.3341 29.1099 49 31.994 49C34.878 49 36.35 47.333 37.533 45.993C38.657 44.72 39.364 44 40.825 44C42.287 44 42.995 44.721 44.12 45.993Z" fill="black"/>
</svg>

<svg xmlns="http://www.w3.org/2000/svg" width="64" height="64" fill="none" viewBox="0 0 64 64"><path fill="currentColor" fill-rule="evenodd" d="M49.663 23c-2.886 0-4.359-1.667-5.543-3.007C42.995 18.72 42.287 18 40.825 18s-2.168.72-3.292 1.993C36.35 21.333 34.878 23 31.994 23s-4.356-1.666-5.54-3.006l-.001-.001C25.328 18.72 24.621 18 23.16 18s-2.168.72-3.292 1.993C18.685 21.333 17.213 23 14.329 23s-4.356-1.667-5.539-3.007C7.666 18.72 6.959 18 5.5 18a1.5 1.5 0 1 1 0-3c2.883 0 4.354 1.666 5.537 3.006l.001.001C12.162 19.28 12.869 20 14.329 20s2.167-.72 3.291-1.993C18.803 16.667 20.275 15 23.16 15c2.884 0 4.356 1.666 5.54 3.006l.001.001C29.826 19.28 30.533 20 31.994 20c1.46 0 2.167-.72 3.291-1.993C36.468 16.667 37.94 15 40.825 15s4.359 1.667 5.543 3.007C47.493 19.28 48.201 20 49.663 20s2.169-.72 3.294-1.993C54.141 16.667 55.614 15 58.5 15a1.5 1.5 0 1 1 0 3c-1.462 0-2.17.72-3.295 1.994l-.001.001C54.02 21.335 52.547 23 49.663 23m0 13c-2.886 0-4.359-1.667-5.543-3.007C42.995 31.72 42.287 31 40.825 31s-2.168.72-3.292 1.993C36.35 34.333 34.878 36 31.994 36s-4.356-1.666-5.54-3.006l-.001-.001C25.328 31.72 24.621 31 23.16 31s-2.168.72-3.292 1.993C18.685 34.333 17.213 36 14.329 36c-2.882 0-4.354-1.666-5.537-3.005l-.002-.002C7.666 31.72 6.959 31 5.5 31a1.5 1.5 0 1 1 0-3c2.883 0 4.354 1.666 5.537 3.006l.001.001C12.162 32.28 12.869 33 14.329 33s2.167-.72 3.291-1.993C18.803 29.667 20.275 28 23.16 28c2.884 0 4.356 1.666 5.54 3.006l.001.001C29.826 32.28 30.533 33 31.994 33c1.46 0 2.167-.72 3.291-1.993C36.468 29.667 37.94 28 40.825 28s4.359 1.667 5.543 3.007C47.493 32.28 48.201 33 49.663 33s2.169-.72 3.294-1.993C54.141 29.667 55.614 28 58.5 28a1.5 1.5 0 1 1 0 3c-1.462 0-2.17.72-3.295 1.994l-.001.001C54.02 34.335 52.547 36 49.663 36m-5.543 9.993C45.304 47.333 46.777 49 49.663 49c2.885 0 4.358-1.667 5.542-3.007C56.33 44.721 57.038 44 58.5 44a1.5 1.5 0 0 0 0-3c-2.886 0-4.359 1.667-5.543 3.007C51.832 45.28 51.125 46 49.663 46s-2.17-.721-3.295-1.993C45.184 42.667 43.711 41 40.825 41c-2.885 0-4.357 1.667-5.54 3.007C34.161 45.28 33.454 46 31.994 46c-1.461 0-2.168-.72-3.293-1.993l-.001-.001C27.516 42.666 26.044 41 23.16 41s-4.357 1.667-5.54 3.007C16.496 45.28 15.789 46 14.329 46s-2.167-.72-3.291-1.993v-.001C9.853 42.666 8.382 41 5.5 41a1.5 1.5 0 0 0 0 3c1.459 0 2.166.72 3.29 1.992C9.975 47.333 11.447 49 14.33 49s4.356-1.667 5.539-3.007C20.992 44.72 21.699 44 23.16 44s2.168.72 3.293 1.993l.001.001C27.638 47.334 29.11 49 31.994 49s4.356-1.667 5.539-3.007C38.657 44.72 39.364 44 40.825 44c1.462 0 2.17.721 3.295 1.993" clip-rule="evenodd"/></svg>
